packages/opendesign/src/icons/svgs/fill/filter.svg

<?xml version="1.0" encoding="UTF-8"?>
<svg width="24px" height="24px" viewBox="0 0 24 24" version="1.1" xmlns="http://www.w3.org/2000/svg" xmlns:xlink="http://www.w3.org/1999/xlink">
    <title>filter</title>
    <g id="filter" stroke="none" stroke-width="1" fill="none" fill-rule="evenodd">
        <path d="M18.9943917,2.4 C19.8882806,2.4 20.6,3.1494834 20.6,4.05896614 C20.6,4.37024341 20.5153028,4.67466281 20.3563926,4.93767706 L20.2708016,5.06557381 L18.6303675,7.28661434 C18.4334971,7.55316395 18.057821,7.60965013 17.7912713,7.41277976 C17.5513767,7.23559642 17.4816334,6.91358042 17.6136022,6.65663439 L17.6651059,6.57368364 L19.3055401,4.35264311 C19.3662065,4.27050472 19.3999992,4.16678634 19.3999992,4.05896614 C19.3999992,3.8276604 19.2508777,3.64492495 19.0654209,3.6071727 L18.9943917,3.6 L5.00565455,3.6 C4.92141319,3.6 4.83832029,3.63002255 4.7684539,3.6872464 C4.60235742,3.8232872 4.55395386,4.07315757 4.64626295,4.27134999 L4.69450616,4.35264311 L10.2609594,11.8892567 C10.4432145,12.1360182 10.5538966,12.4294137 10.5826466,12.7355236 L10.5901459,12.8894811 L10.6104847,18.3543999 C10.6109343,18.4751955 10.6535804,18.5883826 10.7256839,18.672181 L10.7850858,18.7291792 L12.8026047,20.3177304 C12.8716371,20.3720851 12.9528837,20.4003464 13.0350858,20.4 C13.2279576,20.3991947 13.3980334,20.241321 13.4327564,20.0234239 L13.4392131,19.9390884 L13.4126251,12.8986529 C13.4114424,12.5854808 13.4960171,12.2789536 13.6557378,12.0142636 L13.7418112,11.885568 L16.1293865,8.6529473 C16.3262569,8.38639769 16.701933,8.32991151 16.9684826,8.52678188 C17.2083773,8.70396522 17.2781205,9.02598122 17.1461517,9.28292725 L17.094648,9.36587799 L14.7070728,12.5984987 C14.6612892,12.6604866 14.6308189,12.7347536 14.618618,12.8137828 L14.6126165,12.8941212 L14.6392045,19.9345567 C14.6426388,20.8439365 13.9339065,21.5962382 13.0400972,21.6000082 C12.7361023,21.6012563 12.4397003,21.5134403 12.184349,21.3490614 L12.0602491,21.2605497 L10.0427302,19.6719984 C9.68889813,19.3933987 9.46606636,18.9785239 9.41957345,18.5289038 L9.41049305,18.3588659 L9.39015422,12.8939471 C9.38985512,12.8135797 9.37078824,12.7355676 9.33583704,12.6671453 L9.29569786,12.6021874 L3.72924463,5.06557381 C3.1992813,4.34803814 3.32112792,3.32154352 4.00808762,2.75889134 C4.25080328,2.56009585 4.54364396,2.43841736 4.85095704,2.40770913 L5.00565455,2.4 L18.9943917,2.4 Z" id="path1" fill="#000000" fill-rule="nonzero"></path>
    </g>
</svg>

<!-- Generated by IcoMoon.io -->
<svg version="1.1" xmlns="http://www.w3.org/2000/svg" width="24" height="24" viewBox="0 0 24 24">
<title>filter</title>
<path d="M18.994 2.4c0.894 0 1.606 0.749 1.606 1.659 0 0.311-0.085 0.616-0.244 0.879l-0.086 0.128-1.64 2.221c-0.197 0.267-0.573 0.323-0.839 0.126-0.24-0.177-0.31-0.499-0.178-0.756l0.051-0.083 1.64-2.221c0.061-0.082 0.094-0.186 0.094-0.294 0-0.231-0.149-0.414-0.335-0.452l-0.071-0.007h-13.989c-0.084 0-0.167 0.030-0.237 0.087-0.166 0.136-0.214 0.386-0.122 0.584l0.048 0.081 5.566 7.537c0.182 0.247 0.293 0.54 0.322 0.846l0.007 0.154 0.020 5.465c0 0.121 0.043 0.234 0.115 0.318l0.059 0.057 2.018 1.589c0.069 0.054 0.15 0.083 0.232 0.082 0.193-0.001 0.363-0.159 0.398-0.377l0.006-0.084-0.027-7.040c-0.001-0.313 0.083-0.62 0.243-0.884l0.086-0.129 2.388-3.233c0.197-0.267 0.573-0.323 0.839-0.126 0.24 0.177 0.31 0.499 0.178 0.756l-0.051 0.083-2.388 3.233c-0.046 0.062-0.076 0.136-0.088 0.215l-0.006 0.080 0.027 7.040c0.003 0.909-0.705 1.662-1.599 1.665-0.304 0.001-0.6-0.087-0.856-0.251l-0.124-0.088-2.018-1.589c-0.354-0.279-0.577-0.693-0.623-1.143l-0.009-0.17-0.020-5.465c-0-0.080-0.019-0.158-0.054-0.227l-0.040-0.065-5.566-7.537c-0.53-0.718-0.408-1.744 0.279-2.307 0.243-0.199 0.536-0.32 0.843-0.351l0.155-0.008h13.989z"></path>
</svg>
